packages/tokens/icons/paintBucket/size16Px.svg

<svg viewBox="0 0 16 16" fill="none" xmlns="http://www.w3.org/2000/svg" width="1em" height="1em"><path d="M13 8L7 2L1.20711 7.79289C0.816582 8.18342 0.816582 8.81658 1.20711 9.20711L4.79289 12.7929C5.18342 13.1834 5.81658 13.1834 6.20711 12.7929L10.7071 8.29289C10.8946 8.10536 11.149 8 11.4142 8H13Z" stroke="currentColor"/><path d="M5.5 7L5.5 1.5C5.5 1.16667 5.3 0.5 4.5 0.5C3.7 0.5 3.5 1.16667 3.5 1.5L3.5 5.5" stroke="currentColor" stroke-linecap="round"/><path d="M14.2779 11L14.2778 11C13.5065 12.5 12.4783 14.5 14.2778 14.5C16.0774 14.5 15.0491 12.5 14.2779 11Z" stroke="currentColor"/></svg>

<svg xmlns="http://www.w3.org/2000/svg" fill="none" viewBox="0 0 16 16" width="1em" height="1em"><path stroke="currentColor" d="M13 8 7 2 1.207 7.793a1 1 0 0 0 0 1.414l3.586 3.586a1 1 0 0 0 1.414 0l4.5-4.5A1 1 0 0 1 11.414 8H13Z"/><path stroke="currentColor" stroke-linecap="round" d="M5.5 7V1.5c0-.333-.2-1-1-1s-1 .667-1 1v4"/><path stroke="currentColor" d="M14.278 11c-.771 1.5-1.8 3.5 0 3.5s.771-2 0-3.5Z"/></svg>
